X:1
T:Castle Hackett
M:3/4
L:1/8
S:Standford/Petrie, The Complete Collection of Irish Music,
S:London, [1905], no. 1297
Z:François-Emmanuel de Wasseige
K:D
de |f2 ed d2 |=c2 B2 AF|G2 F2 A>G|E2 D2 d>e|
f2 e2 d2|=c2 B2 AF|A>B d2 d2 |d4 d>e|
f2 e2 d2|=c2 B2 AF|G2 F2 AF|E2 D2 FA|
=c2 d2 c2|B2 A2 F>D|E2 D2 D2|D4|]

